assets/offering/inbrott.svg

<svg width="48" height="47" viewBox="0 0 48 47" fill="none" xmlns="http://www.w3.org/2000/svg">
<mask id="mask0" mask-type="alpha" maskUnits="userSpaceOnUse" x="0" y="0" width="49" height="47">
<path fill-rule="evenodd" clip-rule="evenodd" d="M0.00012207 0.232422H48V46.7952H0.00012207V0.232422Z" fill="white"/>
</mask>
<g mask="url(#mask0)">
<path fill-rule="evenodd" clip-rule="evenodd" d="M48.0001 23.5139C48.0001 36.3721 37.2551 46.7954 24.0001 46.7954C10.7451 46.7954 0.00012207 36.3721 0.00012207 23.5139C0.00012207 10.6557 10.7451 0.232422 24.0001 0.232422C37.2551 0.232422 48.0001 10.6557 48.0001 23.5139Z" fill="#FF8A80"/>
</g>
<path fill-rule="evenodd" clip-rule="evenodd" d="M30.6857 21.0157H29.6857V16.4429C29.6857 13.4008 27.1347 10.9271 23.9997 10.9271H23.4997V9.95703H23.9997C27.6867 9.95703 30.6857 12.8662 30.6857 16.4429V21.0157Z" fill="white"/>
<mask id="mask1" mask-type="alpha" maskUnits="userSpaceOnUse" x="0" y="0" width="48" height="47">
<path fill-rule="evenodd" clip-rule="evenodd" d="M0 46.7954H48V0.232422H0V46.7954Z" fill="white"/>
</mask>
<g mask="url(#mask1)">
<path fill-rule="evenodd" clip-rule="evenodd" d="M17.315 21.0149H18.315V15.957H17.315V21.0149Z" fill="white"/>
<path fill-rule="evenodd" clip-rule="evenodd" d="M33.34 35.5613H14.66V34.5912H32.34V20.0801H33.34V35.5613Z" fill="white"/>
<path fill-rule="evenodd" clip-rule="evenodd" d="M15.6603 35.5613H14.6603V20.0801H33.3403V21.0501H15.6603V35.5613Z" fill="white"/>
<path fill-rule="evenodd" clip-rule="evenodd" d="M32.34 35.5613H33.34V20.0801H32.34V35.5613Z" fill="white"/>
<path fill-rule="evenodd" clip-rule="evenodd" d="M23.5 31.8525H24.5V29.1538H23.5V31.8525Z" fill="white"/>
<path fill-rule="evenodd" clip-rule="evenodd" d="M24.0001 24.6536C22.9121 24.6536 22.0271 25.5121 22.0271 26.5675C22.0271 27.6229 22.9121 28.4814 24.0001 28.4814C25.0881 28.4814 25.9731 27.6229 25.9731 26.5675C25.9731 25.5121 25.0881 24.6536 24.0001 24.6536ZM24.0001 29.4516C22.3611 29.4516 21.0271 28.1575 21.0271 26.5676C21.0271 24.9767 22.3611 23.6836 24.0001 23.6836C25.6391 23.6836 26.9731 24.9767 26.9731 26.5676C26.9731 28.1575 25.6391 29.4516 24.0001 29.4516Z" fill="white"/>
<path fill-rule="evenodd" clip-rule="evenodd" d="M17.3595 11.1819L15.9575 10.0848L16.5855 9.3291L17.9875 10.4272L17.3595 11.1819Z" fill="white"/>
</g>
</svg>

<svg width="48" height="47" viewBox="0 0 48 47" fill="none" xmlns="http://www.w3.org/2000/svg"><mask id="a" maskUnits="userSpaceOnUse" x="0" y="0" width="49" height="47"><path fill-rule="evenodd" clip-rule="evenodd" d="M0 .232h48v46.563H0V.232z" fill="#fff"/></mask><g mask="url(#a)"><path fill-rule="evenodd" clip-rule="evenodd" d="M48 23.514c0 12.858-10.745 23.281-24 23.281S0 36.372 0 23.514C0 10.656 10.745.232 24 .232s24 10.424 24 23.282z" fill="#FF8A80"/></g><path fill-rule="evenodd" clip-rule="evenodd" d="M30.686 21.016h-1v-4.573c0-3.042-2.551-5.516-5.686-5.516h-.5v-.97h.5c3.687 0 6.686 2.91 6.686 6.486v4.573z" fill="#fff"/><mask id="b" maskUnits="userSpaceOnUse" x="0" y="0" width="48" height="47"><path fill-rule="evenodd" clip-rule="evenodd" d="M0 46.795h48V.232H0v46.563z" fill="#fff"/></mask><g mask="url(#b)" fill-rule="evenodd" clip-rule="evenodd" fill="#fff"><path d="M17.315 21.015h1v-5.058h-1v5.058zM33.34 35.561H14.66v-.97h17.68v-14.51h1v15.48z"/><path d="M15.66 35.561h-1v-15.48h18.68v.97H15.66v14.51z"/><path d="M32.34 35.561h1v-15.48h-1v15.48zM23.5 31.852h1v-2.698h-1v2.698z"/><path d="M24 24.654c-1.088 0-1.973.858-1.973 1.913 0 1.056.885 1.914 1.973 1.914s1.973-.858 1.973-1.914c0-1.055-.885-1.913-1.973-1.913zm0 4.798c-1.639 0-2.973-1.295-2.973-2.884 0-1.591 1.334-2.884 2.973-2.884 1.64 0 2.973 1.293 2.973 2.884 0 1.59-1.334 2.884-2.973 2.884zM17.36 11.182l-1.402-1.097.627-.756 1.402 1.098-.627.755z"/></g></svg>
